X: 3690
T:Priest and His Boots, The
R:jig
D:Patrick Street: Irish Times
M:6/8
L:1/8
K:D
~e3 efe|efd cBA|dcd fed|cAc ecd|!
~e3 efe|efd cBA|dcd faf|1 gec dcd:|2 gec dfg||!
|:afa geg|fdf ecA|dcd fed|cAc efg|!
afa geg|fdf ecA|dcd faf|1 gec dfg:|2 gec dcd|!
